X:1
T:Title
%%score { ( 1 3 4 ) | ( 2 5 6 ) }
L:1/8
M:4/4
K:D
V:1 treble nm="Grand Piano"
V:3 treble 
V:4 treble 
V:2 bass 
V:5 bass 
V:6 bass 
V:1
 z4 z2[Q:1/4=100] [DF]>[EG] | [FA]2 [FA]2 [FA]>[EG] [DF]>[EG] | [FA]2 [Fd]2 [DFA]2 E>F | G6 z2 | %4
 F6 z2 | [FA]2 [FA]2 [FA]>[EG] [DF]>[EG] | [FA]2 [Fd]2 [FA]2 [FA]>[FA] | B3 B A2 c-[Gc] | %8
[M:3/4] [Fd]6 |[M:1/4] A>A |[M:4/4] [GB]6 z2 | [FA]6 z2 | [CE]2 [CE]>[DF] [EG][GB] [FA]>[EG] | %13
 [DF]6 z2 | [GB]6 z2 | [FA]6 z2 | B2 B>B A2 [Ec]>[Gc] |[M:3/4] [Fd]6 |] %18
V:2
 z4 z2 [D,A,]>[D,A,] | [D,D]2 [D,D]2 [D,D]>[D,A,] [D,A,]>[D,A,] | [D,D]2 [D,A,]2 D,2 C>D | %3
 E6[K:treble] z2 | D6[K:bass] z2 | [D,D]2 [D,D]2 [D,D]>[D,A,] [D,A,]>[D,A,] | %6
 [D,D]2 [D,A,]2 [D,D]2 [D,D]>[D,D] | [G,DG]3 [G,DG] [A,DF]2[K:bass] [A,,A,]2 |[M:3/4] [D,A,]6 | %9
[M:1/4][K:treble] F>F |[M:4/4] G,2 G,2 z z/ B/ A>G | D,2 D,2 D,2 [D,A,D]>[D,A,D] | %12
 [A,,A,]2 [A,,A,]>[A,,A,] [A,,A,]2 [A,,A,]>[A,,A,] | [D,A,]2 D,>D, D,D,[K:treble] F>F | %14
 G,2 G,2 z z/ B/ A>G | D,2 D,2 D,2 [D,D]>[D,D] | %16
 [G,DG]2 [G,DG]>[G,DG] [A,DF]2[K:bass] [A,,A,]>[A,,A,] |[M:3/4] [D,A,]6 |] %18
V:3
 x8 | x8 | x8 | z2 A,>A, z z/ B/ A>G | z z/ A,/ A,>A, A,2 F>[EG] | x8 | x8 | z4 z2 .E2 | %8
[M:3/4] x6 |[M:1/4] x2 |[M:4/4] z2 D>D .D>d c>B | z2 D>D DD F>F | x8 | z2 A,>A, A,A, A>A | %14
 z2 D>D .D>d c>B | z2 D>D DD [FA]>[FA] | x8 |[M:3/4] x6 |] %18
V:4
 x8 | x8 | x8 | z4 A,2 z2 | x8 | x8 | x8 | x8 |[M:3/4] x6 |[M:1/4] x2 |[M:4/4] z4 z D z2 | x8 | %12
 x8 | x8 | z4 z D z2 | x8 | x8 |[M:3/4] x6 |] %18
V:5
 x8 | x8 | x8 | z2 A,,>A,, z z/[K:treble] G/ F>E | z z/[K:bass] D,/ D,>D, D,2 [D,A,D]>[D,A,] | x8 | %6
 x8 | x6[K:bass] x2 |[M:3/4] x6 |[M:1/4][K:treble] x2 |[M:4/4] z4 G,2 z2 | x8 | x8 | %13
 x6[K:treble] x2 | z4 G,2 z2 | x8 | x6[K:bass] x2 |[M:3/4] x6 |] %18
V:6
 x8 | x8 | x8 | z4 A,,2[K:treble] z2 | x3/2[K:bass] x13/2 | x8 | x8 | x6[K:bass] x2 |[M:3/4] x6 | %9
[M:1/4][K:treble] x2 |[M:4/4] x8 | x8 | x8 | x6[K:treble] x2 | x8 | x8 | x6[K:bass] x2 | %17
[M:3/4] x6 |] %18

